humanity-icon-theme/Humanity/actions/24/view-refresh.svg

<?xml version="1.0" encoding="UTF-8" standalone="no"?>
<!-- Created with Inkscape (http://www.inkscape.org/) -->

<svg
   xmlns:svg="http://www.w3.org/2000/svg"
   xmlns="http://www.w3.org/2000/svg"
   xmlns:xlink="http://www.w3.org/1999/xlink"
   version="1.0"
   width="24"
   height="24"
   id="svg2449">
  <defs
     id="defs2451">
    <linearGradient
       id="linearGradient3827">
      <stop
         id="stop3835"
         style="stop-color:#6396cd;stop-opacity:1"
         offset="0" />
      <stop
         id="stop3831"
         style="stop-color:#7ba7d5;stop-opacity:0"
         offset="1" />
    </linearGradient>
    <linearGradient
       id="linearGradient3803">
      <stop
         id="stop3805"
         style="stop-color:#538ec6;stop-opacity:1"
         offset="0" />
      <stop
         id="stop3807"
         style="stop-color:#538ec6;stop-opacity:0"
         offset="1" />
    </linearGradient>
    <linearGradient
       id="linearGradient3533">
      <stop
         id="stop3535"
         style="stop-color:#93b9dd;stop-opacity:1"
         offset="0" />
      <stop
         id="stop3545"
         style="stop-color:#6396cd;stop-opacity:1"
         offset="1" />
    </linearGradient>
    <linearGradient
       x1="108.97875"
       y1="185.10141"
       x2="111.16116"
       y2="193.85185"
       id="linearGradient5584"
       xlink:href="#linearGradient5578"
       gradientUnits="userSpaceOnUse"
       gradientTransform="matrix(1.0000213,0,0,0.99999945,-102.00336,-174.00344)" />
    <linearGradient
       id="linearGradient5578">
      <stop
         id="stop5580"
         style="stop-color:#ffffff;stop-opacity:1"
         offset="0" />
      <stop
         id="stop5582"
         style="stop-color:#ffffff;stop-opacity:0"
         offset="1" />
    </linearGradient>
    <linearGradient
       x1="113.66741"
       y1="189.97391"
       x2="112.51836"
       y2="187"
       id="linearGradient5554"
       xlink:href="#linearGradient5548"
       gradientUnits="userSpaceOnUse"
       gradientTransform="matrix(1.0000213,0,0,0.99999945,-102.00336,-174.00344)" />
    <linearGradient
       id="linearGradient5548">
      <stop
         id="stop5550"
         style="stop-color:#ffffff;stop-opacity:1"
         offset="0" />
      <stop
         id="stop5552"
         style="stop-color:#ffffff;stop-opacity:0"
         offset="1" />
    </linearGradient>
    <linearGradient
       x1="116.4927"
       y1="198.96754"
       x2="110.65003"
       y2="177.1624"
       id="linearGradient5374"
       xlink:href="#linearGradient4022-6-5-6"
       gradientUnits="userSpaceOnUse" />
    <linearGradient
       id="linearGradient4022-6-5-6">
      <stop
         id="stop4024-1-5-3"
         style="stop-color:#555753;stop-opacity:1"
         offset="0" />
      <stop
         id="stop4026-2-3-1"
         style="stop-color:#babdb6;stop-opacity:1"
         offset="1" />
    </linearGradient>
    <linearGradient
       x1="114.86526"
       y1="192.53191"
       x2="119.53192"
       y2="187.86525"
       id="linearGradient3809"
       xlink:href="#linearGradient3803"
       gradientUnits="userSpaceOnUse" />
    <linearGradient
       x1="109.00001"
       y1="177"
       x2="113.00001"
       y2="196"
       id="linearGradient3817"
       xlink:href="#linearGradient3533"
       gradientUnits="userSpaceOnUse" />
    <linearGradient
       x1="113.93192"
       y1="192.53191"
       x2="120.46526"
       y2="189.73192"
       id="linearGradient3833"
       xlink:href="#linearGradient3827"
       gradientUnits="userSpaceOnUse" />
    <linearGradient
       x1="109.00001"
       y1="177"
       x2="112.11741"
       y2="188.79379"
       id="linearGradient3883"
       xlink:href="#linearGradient3533"
       gradientUnits="userSpaceOnUse" />
    <linearGradient
       x1="109.00001"
       y1="177"
       x2="113.00001"
       y2="196"
       id="linearGradient3885"
       xlink:href="#linearGradient3533"
       gradientUnits="userSpaceOnUse" />
  </defs>
  <g
     transform="matrix(1.0000213,0,0,0.99999945,-102.00336,-174.00344)"
     id="g5364"
     style="stroke:url(#linearGradient5374);display:inline;enable-background:new">
    <path
       d="m 112.44761,192.97817 a 7,7 0 1 1 5.7872,-11.6254"
       transform="matrix(1.0714286,0,0,1.0714286,-7.0699096,-12.284198)"
       id="path3159-8"
       style="color:#000000;fill:none;stroke:#538ec6;stroke-width:4.66666651;stroke-linecap:round;stroke-linejoin:round;stroke-miterlimit:4;stroke-opacity:1;stroke-dasharray:none;stroke-dashoffset:0;marker:none;visibility:visible;display:inline;overflow:visible;enable-background:accumulate" />
    <path
       d="m 121,179 0,0 0,5 -5,0"
       id="path3957-8"
       style="fill:none;stroke:#538ec6;stroke-width:4;stroke-linecap:round;stroke-linejoin:round;stroke-miterlimit:4;stroke-opacity:1;stroke-dasharray:none;display:inline;enable-background:new" />
    <path
       d="m 119.19847,189.25253 a 7,7 0 0 1 -9.49902,2.92051"
       transform="matrix(1.0714286,0,0,1.0714286,-7.0699096,-12.284198)"
       id="path3801"
       style="color:#000000;fill:none;stroke:url(#linearGradient3809);stroke-width:4.66666651;stroke-linecap:round;stroke-linejoin:round;stroke-miterlimit:4;stroke-opacity:1;stroke-dasharray:none;stroke-dashoffset:0;marker:none;visibility:visible;display:inline;overflow:visible;enable-background:accumulate" />
  </g>
  <g
     transform="matrix(1.0000213,0,0,0.99999945,-102.00336,-174.00344)"
     id="g5315"
     style="fill-opacity:1;stroke:url(#linearGradient3817);stroke-opacity:1;display:inline;enable-background:new">
    <path
       d="m 112.17502,192.95122 a 7,7 0 1 1 6.05979,-11.59845"
       transform="matrix(1.0714286,0,0,1.0714286,-7.0699104,-12.284198)"
       id="path3159"
       style="color:#000000;fill:none;stroke:url(#linearGradient3883);stroke-width:2.79999995;stroke-linecap:round;stroke-linejoin:round;stroke-miterlimit:4;stroke-opacity:1;stroke-dasharray:none;stroke-dashoffset:0;marker:none;visibility:visible;display:inline;overflow:visible;enable-background:accumulate" />
    <path
       d="m 121,179 0,0 0,5 -5,0"
       id="path3957-7-3"
       style="fill:none;stroke:url(#linearGradient3885);stroke-width:2;stroke-linecap:round;stroke-linejoin:miter;stroke-miterlimit:4;stroke-opacity:1;stroke-dasharray:none;display:inline;enable-background:new" />
    <path
       d="m 119.19728,189.25479 a 7,7 0 0 1 -10.70311,2.10222"
       transform="matrix(1.0714286,0,0,1.0714286,-7.0699104,-12.284198)"
       id="path3823"
       style="color:#000000;fill:none;stroke:url(#linearGradient3833);stroke-width:2.79999995;stroke-linecap:round;stroke-linejoin:round;stroke-miterlimit:4;stroke-opacity:1;stroke-dasharray:none;stroke-dashoffset:0;marker:none;visibility:visible;display:inline;overflow:visible;enable-background:accumulate" />
  </g>
  <path
     d="m 17.749194,15.99646 c -0.340462,0.647683 -0.77176,1.215015 -1.270184,1.6936 -1.954963,1.877154 -4.939072,2.390862 -7.4800025,1.056399 C 5.8102596,17.07177 4.5742332,13.185142 6.2489489,9.9964646 7.9236746,6.807786 11.810397,5.5717867 14.999136,7.2464657 c 0.614773,0.3228699 1.174775,0.7544396 1.656285,1.2499994 m 0.843768,-1.968749 C 17.023499,6.1235364 16.493078,5.7574466 15.936656,5.4652167 14.900234,4.920897 13.818101,4.6186772 12.717837,4.5277172 c -0.206294,-0.0171 -0.415259,-0.0323 -0.625013,-0.0312 -0.209756,10e-4 -0.42031,0.0182 -0.625014,0.0312 C 8.601989,4.7096971 5.8965114,6.3384162 4.467661,9.0589648 2.2903547,13.204562 3.9157901,18.350447 8.0614875,20.527708 c 3.2323445,1.697581 7.0727905,1.083478 9.6400985,-1.234453 0.725431,-0.654965 1.348937,-1.446112 1.828896,-2.359295"
     id="path3159-1"
     style="font-size:medium;font-style:normal;font-variant:normal;font-weight:normal;font-stretch:normal;text-indent:0;text-align:start;text-decoration:none;line-height:normal;letter-spacing:normal;word-spacing:normal;text-transform:none;direction:ltr;block-progression:tb;writing-mode:lr-tb;text-anchor:start;opacity:0.15;color:#000000;fill:none;stroke:#ffffff;stroke-width:1.00001037;stroke-linecap:round;stroke-miterlimit:4;stroke-dasharray:none;marker:none;visibility:visible;display:inline;overflow:visible;enable-background:accumulate;font-family:Abandoned Bitplane;-inkscape-font-specification:Abandoned Bitplane" />
  <path
     d="m 16.499168,9.4964645 -2.500054,0 c -0.264165,-0.004 -0.50713,0.2358199 -0.50713,0.5000001 M 18.905469,4.4964672 C 18.676264,4.5401672 18.4951,4.7631671 18.49921,4.996467 l 0,2.4999986"
     id="path3957-7-5-1"
     style="font-size:medium;font-style:normal;font-variant:normal;font-weight:normal;font-stretch:normal;text-indent:0;text-align:start;text-decoration:none;line-height:normal;letter-spacing:normal;word-spacing:normal;text-transform:none;direction:ltr;block-progression:tb;writing-mode:lr-tb;text-anchor:start;opacity:0.3;color:#000000;fill:none;stroke:#ffffff;stroke-width:1.00001037;stroke-linecap:round;marker:none;visibility:visible;display:inline;overflow:visible;enable-background:new;font-family:Abandoned Bitplane;-inkscape-font-specification:Abandoned Bitplane" />
  <path
     d="m 15.079062,18.712861 c -1.826712,0.990175 -4.08939,1.079069 -6.0800545,0.0336 C 5.8102596,17.071772 4.5742332,13.185144 6.2489489,9.9964666 7.9236746,6.807788 11.810397,5.5717887 14.999136,7.2464677 c 0.614773,0.3228699 1.174775,0.7544396 1.656285,1.2499994"
     id="path3159-1-7"
     style="font-size:medium;font-style:normal;font-variant:normal;font-weight:normal;font-stretch:normal;text-indent:0;text-align:start;text-decoration:none;line-height:normal;letter-spacing:normal;word-spacing:normal;text-transform:none;direction:ltr;block-progression:tb;writing-mode:lr-tb;text-anchor:start;opacity:0.23999999;color:#000000;fill:none;stroke:url(#linearGradient5554);stroke-width:1.00001037;stroke-linecap:round;stroke-miterlimit:4;stroke-dasharray:none;marker:none;visibility:visible;display:inline;overflow:visible;enable-background:accumulate;font-family:Abandoned Bitplane;-inkscape-font-specification:Abandoned Bitplane" />
  <path
     d="M 17.499189,6.5277161 C 17.023499,6.1235364 16.493078,5.7574466 15.936656,5.4652167 14.900234,4.920897 13.818101,4.6186772 12.717837,4.5277172 c -0.206294,-0.0171 -0.415259,-0.0323 -0.625013,-0.0312 -0.209756,10e-4 -0.42031,0.0182 -0.625014,0.0312 C 8.601989,4.7096971 5.8965114,6.3384162 4.467661,9.0589648 2.2903547,13.204562 3.9157892,18.350449 8.0614875,20.527708"
     id="path3159-1-9"
     style="font-size:medium;font-style:normal;font-variant:normal;font-weight:normal;font-stretch:normal;text-indent:0;text-align:start;text-decoration:none;line-height:normal;letter-spacing:normal;word-spacing:normal;text-transform:none;direction:ltr;block-progression:tb;writing-mode:lr-tb;text-anchor:start;opacity:0.23999999;color:#000000;fill:none;stroke:url(#linearGradient5584);stroke-width:1.00001037;stroke-linecap:round;stroke-miterlimit:4;stroke-dasharray:none;marker:none;visibility:visible;display:inline;overflow:visible;enable-background:accumulate;font-family:Abandoned Bitplane;-inkscape-font-specification:Abandoned Bitplane" />
</svg>

<?xml version="1.0" encoding="UTF-8" standalone="no"?>
<!-- Created with Inkscape (http://www.inkscape.org/) -->
<svg id="svg2449" xmlns="http://www.w3.org/2000/svg" height="24" width="24" version="1.0" xmlns:xlink="http://www.w3.org/1999/xlink">
 <defs id="defs2451">
  <linearGradient id="linearGradient3533">
   <stop id="stop3535" style="stop-color:#93b9dd" offset="0"/>
   <stop id="stop3545" style="stop-color:#6396cd" offset="1"/>
  </linearGradient>
  <linearGradient id="linearGradient5584" y2="193.85" gradientUnits="userSpaceOnUse" x2="111.16" gradientTransform="translate(-102 -174)" y1="185.1" x1="108.98">
   <stop id="stop5580" style="stop-color:#fff" offset="0"/>
   <stop id="stop5582" style="stop-color:#fff;stop-opacity:0" offset="1"/>
  </linearGradient>
  <linearGradient id="linearGradient5554" y2="187" gradientUnits="userSpaceOnUse" x2="112.52" gradientTransform="translate(-102 -174)" y1="189.97" x1="113.67">
   <stop id="stop5550" style="stop-color:#fff" offset="0"/>
   <stop id="stop5552" style="stop-color:#fff;stop-opacity:0" offset="1"/>
  </linearGradient>
  <linearGradient id="linearGradient5374" y2="177.16" gradientUnits="userSpaceOnUse" x2="110.65" y1="198.97" x1="116.49">
   <stop id="stop4024-1-5-3" style="stop-color:#555753" offset="0"/>
   <stop id="stop4026-2-3-1" style="stop-color:#babdb6" offset="1"/>
  </linearGradient>
  <linearGradient id="linearGradient3809" y2="187.87" gradientUnits="userSpaceOnUse" x2="119.53" y1="192.53" x1="114.87">
   <stop id="stop3805" style="stop-color:#538ec6" offset="0"/>
   <stop id="stop3807" style="stop-color:#538ec6;stop-opacity:0" offset="1"/>
  </linearGradient>
  <linearGradient id="linearGradient3817" y2="196" xlink:href="#linearGradient3533" gradientUnits="userSpaceOnUse" x2="113" y1="177" x1="109"/>
  <linearGradient id="linearGradient3833" y2="189.73" gradientUnits="userSpaceOnUse" x2="120.47" y1="192.53" x1="113.93">
   <stop id="stop3835" style="stop-color:#6396cd" offset="0"/>
   <stop id="stop3831" style="stop-color:#7ba7d5;stop-opacity:0" offset="1"/>
  </linearGradient>
  <linearGradient id="linearGradient3883" y2="188.79" xlink:href="#linearGradient3533" gradientUnits="userSpaceOnUse" x2="112.12" y1="177" x1="109"/>
 </defs>
 <g id="g5364" style="stroke:url(#linearGradient5374);enable-background:new" transform="translate(-102 -174)">
  <path id="path3159-8" style="stroke-linejoin:round;stroke-width:4.6667;color:#000000;stroke:#538ec6;stroke-linecap:round;enable-background:accumulate;fill:none" d="m112.45 192.98a7 7 0 1 1 5.7872 -11.625" transform="matrix(1.0714 0 0 1.0714 -7.0699 -12.284)"/>
  <path id="path3957-8" style="stroke-linejoin:round;stroke-width:4;stroke:#538ec6;stroke-linecap:round;enable-background:new;fill:none" d="m121 179v5h-5"/>
  <path id="path3801" style="stroke-linejoin:round;stroke-width:4.6667;color:#000000;stroke:url(#linearGradient3809);stroke-linecap:round;enable-background:accumulate;fill:none" d="m119.2 189.25a7 7 0 0 1 -9.499 2.9205" transform="matrix(1.0714 0 0 1.0714 -7.0699 -12.284)"/>
 </g>
 <g id="g5315" style="stroke:url(#linearGradient3817);enable-background:new" transform="translate(-102 -174)">
  <path id="path3159" style="stroke-linejoin:round;stroke-width:2.8;color:#000000;stroke:url(#linearGradient3883);stroke-linecap:round;enable-background:accumulate;fill:none" d="m112.18 192.95a7 7 0 1 1 6.0598 -11.598" transform="matrix(1.0714 0 0 1.0714 -7.0699 -12.284)"/>
  <path id="path3957-7-3" style="enable-background:new;stroke:url(#linearGradient3817);stroke-linecap:round;stroke-width:2;fill:none" d="m121 179v5h-5"/>
  <path id="path3823" style="stroke-linejoin:round;stroke-width:2.8;color:#000000;stroke:url(#linearGradient3833);stroke-linecap:round;enable-background:accumulate;fill:none" d="m119.2 189.25a7 7 0 0 1 -10.703 2.1022" transform="matrix(1.0714 0 0 1.0714 -7.0699 -12.284)"/>
 </g>
 <path id="path3159-1" style="opacity:.15;block-progression:tb;text-indent:0;color:#000000;stroke:#fff;stroke-linecap:round;text-transform:none;fill:none" d="m17.749 15.996c-0.34046 0.64768-0.77176 1.215-1.2702 1.6936-1.955 1.8772-4.9391 2.3909-7.48 1.0564-3.1885-1.674-4.4246-5.561-2.7499-8.7495 1.6748-3.1887 5.5611-4.4247 8.7501-2.75 0.61477 0.32287 1.1748 0.75444 1.6563 1.25m0.84377-1.9687c-0.476-0.4043-1.006-0.7704-1.562-1.0626-1.037-0.5443-2.119-0.8465-3.219-0.9375-0.20629-0.0171-0.41526-0.0323-0.62501-0.0312-0.20976 0.001-0.42031 0.0182-0.62501 0.0312-2.866 0.182-5.5715 1.8107-7.0003 4.5313-2.1773 4.146-0.5519 9.291 3.5938 11.469 3.2323 1.6976 7.0728 1.0835 9.6401-1.2345 0.72543-0.65496 1.3489-1.4461 1.8289-2.3593"/>
 <path id="path3957-7-5-1" style="opacity:.3;enable-background:new;block-progression:tb;text-indent:0;color:#000000;stroke:#fff;stroke-linecap:round;text-transform:none;fill:none" d="m16.499 9.4965h-2.5001c-0.26416-0.004-0.50713 0.23582-0.50713 0.5m5.413-5.5c-0.229 0.0437-0.41 0.2667-0.406 0.5v2.5"/>
 <path id="path3159-1-7" style="opacity:0.24;block-progression:tb;text-indent:0;color:#000000;stroke:url(#linearGradient5554);stroke-linecap:round;text-transform:none;fill:none" d="m15.079 18.713c-1.8267 0.99018-4.0894 1.0791-6.0801 0.0336-3.1886-1.675-4.4247-5.562-2.75-8.7505 1.6748-3.1887 5.5611-4.4247 8.7501-2.75 0.61477 0.32287 1.1748 0.75444 1.6563 1.25"/>
 <path id="path3159-1-9" style="opacity:0.24;block-progression:tb;text-indent:0;color:#000000;stroke:url(#linearGradient5584);stroke-linecap:round;text-transform:none;fill:none" d="m17.499 6.5277c-0.476-0.4042-1.006-0.7703-1.562-1.0625-1.037-0.5443-2.119-0.8465-3.219-0.9375-0.20629-0.0171-0.41526-0.0323-0.62501-0.0312-0.20976 0.001-0.42031 0.0182-0.62501 0.0312-2.866 0.182-5.5715 1.8107-7.0003 4.5313-2.1773 4.146-0.5519 9.291 3.5938 11.469"/>
</svg>
